packages/core/src/svgs/ftc.svg

<svg width="24" height="24" viewBox="0 0 24 24" fill="none" xmlns="http://www.w3.org/2000/svg">
<g clip-path="url(#clip0_31_10541)">
<path d="M0 0H24V24H0V0Z" fill="#A1A1A1"/>
<path d="M18.3837 6.95165C18.3095 8.01536 16.9179 9.62765 16.2588 10.3918L16.1281 10.5435C15.9177 10.7895 15.7184 11.0406 15.5427 11.2631C15.2277 11.6612 14.9864 11.9659 14.8839 11.9779C14.8326 11.9808 14.7811 11.9812 14.7297 11.9792C14.3834 11.9749 13.6265 11.9664 13.4744 12.3516C13.3822 12.5659 14.6144 12.5111 14.6144 12.5111C14.6144 12.5111 12.6224 15.3302 12.4998 15.3486C12.4698 15.3529 12.3622 15.3508 12.2041 15.3469C11.7224 15.3354 10.7714 15.3126 10.1157 15.4468C9.25166 15.6242 8.9268 16.1085 8.9268 16.1085C8.9268 16.1085 10.1525 16.2126 11.0165 16.2555C11.8749 16.2924 13.1988 16.3112 13.1988 16.3112C13.1988 16.3112 12.2487 16.8195 10.7409 16.7398C9.23323 16.6601 8.63237 16.5375 8.63237 16.5375C8.63237 16.5375 8.84109 17.0891 9.25809 17.3526C9.51137 17.5134 9.86966 17.6531 10.1084 17.7465C10.2618 17.8065 10.3655 17.8472 10.3612 17.8614C9.84435 17.8694 9.33191 17.7649 8.85952 17.5549C8.48923 17.3775 8.31094 17.1324 8.20937 16.9935C8.14937 16.9112 8.1168 16.8658 8.08723 16.8932C8.00152 16.9665 8.23423 17.5305 8.43652 17.7204C8.52052 17.8018 8.65894 17.9115 8.78709 18.0122C8.96623 18.1541 9.12566 18.2796 9.08623 18.2908C9.02494 18.3152 7.86052 17.8614 7.6458 17.5978C7.54166 17.8185 6.44452 18.9709 6.40166 18.8484C6.38066 18.7884 6.57566 18.5432 6.78737 18.2771C7.00937 17.9985 7.2498 17.6959 7.27809 17.5614C7.33937 17.3038 7.26566 16.8992 7.0698 16.9116C6.87352 16.9236 6.53023 17.6286 6.53023 17.6286C6.53023 17.6286 6.40766 17.3526 6.45694 17.0586C6.5058 16.7646 6.71409 16.5499 6.71409 16.5499C6.71409 16.5499 6.30352 16.1085 6.11366 15.9186C6.04988 15.8569 5.98443 15.7969 5.91737 15.7386C5.7168 15.5608 5.49094 15.3602 5.53166 15.2749C5.58052 15.1648 6.2238 15.5265 6.45052 15.6859C6.67123 15.8389 7.15552 16.3168 7.15552 16.3168C7.15552 16.3168 6.97123 15.7224 6.83066 15.3242C6.77709 15.1734 6.71194 15.0156 6.65323 14.8755C6.55766 14.6454 6.4818 14.4619 6.5118 14.4354C6.56109 14.3925 6.98366 14.9501 7.16152 15.2261C7.3458 15.5016 7.63337 16.0352 7.63337 16.0352C7.63337 16.0352 7.58452 15.2874 7.6458 14.8031C7.70709 14.3128 7.9158 13.8225 8.01352 13.8534C8.0628 13.8718 8.09066 13.9806 8.13352 14.1495C8.17552 14.3154 8.23209 14.5386 8.33837 14.7911C8.55266 15.2934 8.70009 15.5265 8.7918 15.4652C8.88994 15.4039 8.97609 14.7602 8.92037 13.8165C8.88681 13.2641 8.84194 12.7124 8.7858 12.1618C8.7858 12.1618 9.3618 11.5489 9.39866 11.5789C9.42437 11.5956 9.42866 11.8721 9.43252 12.1875C9.43594 12.4661 9.4398 12.7751 9.45994 12.9645C9.5028 13.3691 9.61937 13.7612 9.67423 13.7612C9.72994 13.7552 9.98709 13.3322 10.1525 12.3212C10.3239 11.3098 10.3977 10.8011 10.3977 10.8011C10.3977 10.8011 11.4888 9.78365 11.5317 9.79565C11.5531 9.80208 11.5754 9.94822 11.6002 10.1162C11.6247 10.2778 11.6517 10.4595 11.6847 10.5559C11.7459 10.7582 11.8689 10.8499 11.8689 10.8499C11.8689 10.8499 12.1261 10.5864 12.1994 9.97351C12.2208 9.79565 12.2367 9.64908 12.2495 9.52779C12.2812 9.23122 12.2967 9.08422 12.3404 8.99293C12.4017 8.85193 14.0199 7.57093 14.8904 6.90922C15.7604 6.25351 17.6238 5.10708 17.7524 5.14393C17.8809 5.18679 18.4634 5.80565 18.3837 6.95208V6.95165ZM10.1769 14.7731C10.1769 14.7731 12.4265 12.5299 13.4007 11.3715C14.3817 10.2131 16.1709 7.62065 16.1709 7.62065C16.1709 7.62065 13.9158 10.0965 12.8002 11.4079C11.8937 12.502 11.0191 13.622 10.1774 14.7666L10.1769 14.7731Z" fill="white"/>
</g>
<defs>
<clipPath id="clip0_31_10541">
<rect width="24" height="24" fill="white"/>
</clipPath>
</defs>
</svg>

<svg xmlns="http://www.w3.org/2000/svg" width="24" height="24" fill="none" viewBox="0 0 24 24"><g clip-path="url(#a)"><path fill="#A1A1A1" d="M0 0h24v24H0z"/><path fill="#fff" d="M18.384 6.952c-.075 1.063-1.466 2.676-2.125 3.44l-.13.152c-.211.245-.41.497-.586.72-.315.397-.557.702-.66.714a2 2 0 0 1-.153.001c-.347-.004-1.104-.013-1.256.373-.092.214 1.14.16 1.14.16s-1.992 2.818-2.114 2.837c-.03.004-.138.002-.296-.002-.482-.012-1.433-.034-2.088.1-.864.177-1.19.662-1.19.662s1.226.104 2.09.146c.859.037 2.183.056 2.183.056s-.95.509-2.458.429-2.109-.202-2.109-.202.21.551.626.815c.253.16.612.3.85.393.154.06.258.101.253.115a3.6 3.6 0 0 1-1.501-.306c-.37-.177-.55-.423-.65-.561-.06-.083-.093-.128-.123-.1-.085.073.147.637.35.826.084.082.222.192.35.292.18.142.339.268.3.279-.062.024-1.226-.43-1.441-.693-.104.22-1.201 1.373-1.244 1.25-.021-.06.174-.305.385-.57.222-.28.463-.582.491-.717.061-.257-.012-.662-.208-.65s-.54.718-.54.718-.122-.276-.073-.57.257-.51.257-.51-.41-.44-.6-.63a5 5 0 0 0-.197-.18c-.2-.178-.426-.379-.385-.464.049-.11.692.252.919.41.22.154.705.632.705.632s-.185-.595-.325-.993a9 9 0 0 0-.178-.448c-.095-.23-.171-.414-.141-.44.05-.043.472.514.65.79.184.276.471.81.471.81s-.048-.749.013-1.233c.061-.49.27-.98.368-.95.049.019.077.128.12.297.042.165.098.389.204.641.215.502.362.736.454.674.098-.061.184-.705.128-1.649a41 41 0 0 0-.134-1.654s.576-.613.613-.583c.025.017.03.293.034.608.003.28.007.588.027.777.043.405.16.797.214.797.056-.006.313-.429.479-1.44.17-1.011.245-1.52.245-1.52s1.09-1.017 1.134-1.005c.021.006.043.152.068.32.025.162.052.344.085.44.06.202.184.294.184.294s.257-.264.33-.876q.032-.266.05-.446c.032-.297.048-.444.091-.535.062-.141 1.68-1.422 2.55-2.084.87-.655 2.734-1.802 2.862-1.765.129.043.711.662.632 1.808m-8.207 7.821s2.25-2.243 3.224-3.402c.98-1.158 2.77-3.75 2.77-3.75s-2.255 2.476-3.37 3.787a74 74 0 0 0-2.624 3.359z"/></g><defs><clipPath id="a"><path fill="#fff" d="M0 0h24v24H0z"/></clipPath></defs></svg>
